!!!COM:	Josquin des Pres
**kern	**kern
*part2	*part1
*staff2	*staff1
*clefGv2	*clefG2
*k[]	*k[]
*M2/1	*M2/1
=1-	=1-
0r	0e
=2	=2
0r	1e
.	[1f
=3	=3
0A	1f]
.	1e
=4	=4
1A	2r
.	1a
[1B	.
.	4g
.	4f
=5	=5
1B]	1g
1A	1a
=6	=6
2r	1d
1d	.
.	[1e
4c	.
4B	.
=7	=7
1c	1e]
1d	1d
=8	=8
1G	2r
.	1g
[1A	.
.	4f
.	4e
=9	=9
1A]	1f
1G	1g
=10	=10
2r	1c
1c	.
.	[1d
4B	.
4A	.
=11	=11
1B	1d]
1c	1c
=12	=12
0d	0f
=13	=13
0c	1e
.	[1a
=14	=14
1d	1a]
[1e	1g
=15	=15
2e]	1.f
4d	.
4c	.
1d	.
.	4e
.	4d
=16	=16
[0e	0c
=17	=17
0e]	1r
.	1g
=18	=18
1c	1a
1d	1b
=19	=19
1e	1cc
1f	1a
=20	=20
1d	1b
1e	[1g
=21	=21
1.c	2g]
.	2e
.	1e
2A	.
=22	=22
1A	1.cc
[1f	.
.	2cc
=23	=23
2f]	1cc
2f	.
1f	1a
=24	=24
1d	1.dd
[1g	.
.	2b
=25	=25
2g]	1b
2e	.
1e	1r
=26	=26
1r	1.cc
[1f	.
.	2cc
=27	=27
2f]	2cc
2f	2a
2f	[1dd
2d	.
=28	=28
1.g	2dd]
.	2b
.	1b
2e	.
=29	=29
1e	1r
1r	1b
=30	=30
1e	1.cc
[1f	.
.	2b
=31	=31
2f]	2a
2e	2g
2d	1a
2c	.
=32	=32
1d	1.b
[1e	.
.	2g
=33	=33
2e]	1g
2c	.
1c	[1cc
=34	=34
1.f	2cc]
.	2b
.	2a
2e	2g
=35	=35
2d	2f
2c	2e
2B-X	2g
2A	[2f
=36	=36
1B	2f]
.	4e
.	4d
[1A	1c
=37	=37
1A]	1.cc
[1f	.
.	2b
=38	=38
2f]	2a
2e	2g
2d	2f
2c	2e
=39	=39
1f	1a
[1e	1g
=40	=40
1e]	2r
.	2g
2r	2a
2c	2cc
=41	=41
2d	2b
2f	2a
2e	2g
2d	2f
=42	=42
2c	2e
2B	2b
2A	2cc
2e	2b
=43	=43
2f	2a
2e	2.cc
2c	.
.	4b
2d	[2a
=44	=44
1B	2a]
.	2g
1A	[1a
=45	=45
2r	1a]
2c	.
2d	2r
2f	2f
=46	=46
2e	2g
2d	2b
2c	2a
2B	2g
=47	=47
2A	2f
2c	2e
2B	2d
2A	2f
=48	=48
2.c	2e
.	2g
4B	.
2A	2f
2G	[2e
=49	=49
1F	2e]
.	2d
[1E	1e
=50	=50
1E]	2r
.	2b
2r	2cc
2e	2b
=51	=51
2f	2a
2e	2.cc
2c	.
.	4b
2d	[2a
=52	=52
1B	2a]
.	2g
2.A	2a
.	2e
4G	.
=53	=53
1E	2r
.	2b
2r	2cc
2e	2b
=54	=54
2f	2a
2e	2.cc
2c	.
.	4b
2d	[2a
=55	=55
1B	2a]
.	2g
1A	1a
==	==
*-	*-
